!!!COM: Beethoven, Ludwig van
!!!CDT: 1770///-1827///
!!!OTL: Piano Sonata no. 16 in G major
!!!OPS: 31
!!!ONM: 1
!!!OMV: 1
!!!OMD: Allegro vivace
!!!AGN: Sonata
**kern	**kern	**dynam
*staff2	*staff1	*staff1/2
*Ipiano	*Ipiano	*Ipiano
*>[I,A,A,B]	*>[I,A,A,B]	*>[I,A,A,B]
*>norep[I,A,B]	*>norep[I,A,B]	*>norep[I,A,B]
*>I	*>I	*>I
*clefF4	*clefG2	*clefG2
*k[f#]	*k[f#]	*k[f#]
*G:	*G:	*G:
*M2/4	*M2/4	*M2/4
*MM132	*MM132	*MM132
16r	[16gg\	f
=1	=1	=1
4G\ 4B\ 4d\	4.gg\]	.
4r	.	.
.	16ff#\LL	.
.	16ee\JJ	.
=2	=2	=2
2r	16dd\LL	.
.	16dd#\	.
.	16ee\	.
.	16b\JJ	.
.	16ddn\LL	.
.	16cc\	.
.	16b\	.
.	16a\JJ	.
=3!|:	=3!|:	=3!|:
*>A	*>A	*>A
2r	4g/	.
.	8r	.
.	16r	.
.	[16B/ [16d/ [16g/	p
=4	=4	=4
8GG''\ 8G''\	8.B/] 8.d/] 8.g/L]	.
8r	.	.
.	[16B/ [16d/ [16b/Jk	.
8GG''\ 8G''\	8.B/] 8.d/] 8.b/L]	.
8r	.	.
.	[16B/ [16d/ [16g/Jk	.
=5	=5	=5
8GG''\ 8G''\	8B/] 8d/] 8g/]	.
8r	8r	.
4r	8r	.
.	16r	.
.	[16B/ [16d/ [16g/	.
=6	=6	=6
8GG''\ 8G''\	8.B/] 8.d/] 8.g/L]	.
8r	.	.
.	[16d/ 16g/ [16b/ [16dd/Jk	.
8GG''\ 8G''\	8.d/] 8.g/ 8.b/] 8.dd/L]	.
8r	.	.
.	[16B/ [16d/ [16g/Jk	.
=7	=7	=7
8GG''\ 8G''\	8B/] 8d/] 8g/]	.
8r	8r	.
4r	8r	.
.	16r	.
.	[16B/ [16d/ [16g/ [16b/	f
=8	=8	=8
8GG''\ 8G''\	8.B/] 8.d/] 8.g/] 8.b/L]	.
8r	.	.
.	[16g/ [16b/ [16ee/ [16gg/Jk	.
8EE''/ 8E''/	8.g\] 8.b\] 8.ee\] 8.gg\L]	.
8r	.	.
.	[16f#\ [16a\ [16dd\ [16ff#\Jk	.
=9	=9	=9
8AA''\ 8A''\	8f#\] 8a\] 8dd\] 8ff#\]	.
8r	8r	.
4r	4r	.
=10	=10	=10
8AA\ 8A\	8f#''/ 8a''/ 8dd''/	p
8r	8r	.
8AAA''/ 8AA''/	8e''/ 8g''/ 8a''/ 8cc#''/	.
8r	8r	.
=11	=11	=11
8DD''/ 8D''/	8d''/ 8f#''/ 8a''/ 8dd''/	.
8r	8r	.
4r	8r	.
.	16r	.
.	[16ffn\	f
=12	=12	=12
4.fn\	4.ff\]	.
16e\LL	16ee\LL	.
16d\JJ	16dd\JJ	.
=13	=13	=13
16cn\LL	16ccn\LL	.
16c#\	16cc#\	.
16d\	16dd\	.
16A\JJ	16a\JJ	.
16cn\LL	16ccn\LL	.
16B-\	16b-\	.
16A\	16a\	.
16G\JJ	16g\JJ	.
=14	=14	=14
4Fn\	4fn/	.
4r	8r	.
.	16r	.
.	[16A/ [16c/ [16f/	p
=15	=15	=15
8FFn''/ 8Fn''/	8.A/] 8.c/] 8.f/L]	.
8r	.	.
.	[16A/ [16c/ [16a/Jk	.
8FF''/ 8F''/	8.A/] 8.c/] 8.a/L]	.
8r	.	.
.	[16A/ [16c/ [16fn/Jk	.
=16	=16	=16
8FFn''/ 8Fn''/	8A/] 8c/] 8f/]	.
8r	8r	.
4r	8r	.
.	16r	.
.	[16A/ [16c/ [16fn/	.
=17	=17	=17
8FFn''/ 8Fn''/	8.A/] 8.c/] 8.f/L]	.
8r	.	.
.	[16c/ [16fn/ [16a/ [16cc/Jk	.
8FF''/ 8F''/	8.c/] 8.f/] 8.a/] 8.cc/L]	.
8r	.	.
.	[16A/ [16c/ [16f/Jk	.
=18	=18	=18
8FFn''/ 8Fn''/	8A/] 8c/] 8f/]	.
8r	8r	.
4r	8r	.
.	16r	.
.	[16A/ [16c/ [16fn/ [16a/	f
=19	=19	=19
8FFn''/ 8Fn''/	8.A/] 8.c/] 8.f/] 8.a/L]	.
8r	.	.
.	[16fn/ [16a/ [16dd/ [16ffn/Jk	.
8DD''/ 8D''/	8.f/] 8.a/] 8.dd/] 8.ff/L]	.
8r	.	.
.	[16e/ [16g/ [16cc/ [16ee/Jk	.
=20	=20	=20
8GG''/ 8G''/	8e/] 8g/] 8cc/] 8ee/]	.
8r	8r	.
4r	4r	.
=21	=21	=21
8GG''/ 8G''/	8e''/ 8g''/ 8cc''/	p
8r	8r	.
8GGG''/ 8GG''/	8d''/ 8fn''/ 8g''/ 8b''/	.
8r	8r	.
=22	=22	=22
8CC''/ 8C''/	8c''/ 8e''/ 8g''/ 8cc''/	.
8r	8r	.
4r	8r	.
.	16r	.
.	[16e\ [16g\ [16cc\ [16ee\	f
=23	=23	=23
8C''\ 8c''\	8.e\] 8.g\] 8.cc\] 8.ee\L]	.
8r	.	.
.	[16cc\ [16ee\ [16aa\ [16ccc\Jk	.
8AA''\ 8A''\	8.cc\] 8.ee\] 8.aa\] 8.ccc\L]	.
8r	.	.
.	[16b\ [16dd\ [16gg\ [16bb\Jk	.
=24	=24	=24
8D''\ 8d''\	8b\] 8dd\] 8gg\] 8bb\]	.
8r	8r	.
4r	4r	.
=25	=25	=25
8D''\ 8d''\	8b''\ 8dd''\ 8gg''\	p
8r	8r	.
8DD''/ 8D''/	8a''\ 8dd''\ 8ff#''\	.
8r	8r	.
=26	=26	=26
8GG''\ 8G''\	8b''\ 8dd''\ 8gg''\	.
8r	8r	.
4r	4r	.
=27	=27	=27
8D''\ 8d''\	8b''\ 8dd''\ 8gg''\ 8bb''\	.
8r	8r	.
8DD''/ 8D''/	8a''\ 8dd''\ 8ff#''\ 8aa''\	.
8r	8r	.
=28	=28	=28
8GG''\ 8G''\	8b''\ 8dd''\ 8gg''\ 8bb''\	.
8r	8r	.
4r	4r	.
=29	=29	=29
8D''\ 8d''\	8dd''\ 8gg''\ 8bb''\ 8ddd''\	.
8r	8r	.
8DD''/ 8D''/	8dd''\ 8ff#''\ 8aa''\ 8ddd''\	.
8r	8r	.
=30	=30	=30
8GG''/ 8G''/	16gg\LL	<
.	16aa#\	.
8r	16bb\	.
.	16ff#\JJ	.
4r	16aan\LL	.
.	16gg\	.
.	16ff#\	.
.	16ee\JJ	.
=31	=31	=31
16d\LL	16dd\LL	.
16d#\	16dd#\	.
16e\	16ee\	.
16B\JJ	16b\JJ	.
16dn\LL	16ddn\LL	.
16c\	16cc\	.
16B\	16b\	.
16A\JJ	16a\JJ	.
=32	=32	=32
16G\LL	16g/LL	.
16A#\	16a#/	.
16B\	16b/	.
16F#\JJ	16f#/JJ	.
16An\LL	16an/LL	.
16G\	16g/	.
16F#\	16f#/	.
16E\JJ	16e/JJ	.
=33	=33	=33
16D/LL	16d/LL	.
16D#/	16d#/	.
16E/	16e/	.
16BB/JJ	16B/JJ	.
16Dn/LL	16dn/LL	.
16C/	16c/	.
16BB/	16B/	.
16AA/JJ	16A/JJ	.
*	*clefF4	*clefF4
=34	=34	=34
16GG/LL	16G\LL	f
16AA#/	16A#\	.
16BB/	16B\	.
16FF#/JJ	16F#\JJ	.
16AAn/LL	16An\LL	.
16GG/	16G\	.
16FF#/	16F#\	.
16EE/JJ	16E\JJ	.
=35	=35	=35
16DD/LL	16D/LL	.
16DD#/	16D#/	.
16EE/	16E/	.
16BBB/JJ	16BB/JJ	.
16DDn/LL	16Dn/LL	.
16CC/	16C/	.
16BBB/	16BB/	.
16AAA/JJ	16AA/JJ	.
=36	=36	=36
16GGG/LL	16GG/LL	.
16FFF#/	16FF#/	.
16GGG/	16GG/	.
16AAA/JJ	16AA/JJ	.
16BBB-/LL	16BB-/LL	.
16BBBn/	16BBn/	.
16CC/	16C/	.
16CC#/JJ	16C#/JJ	.
=37	=37	=37
16DD/LL	16D\LL	.
16CC#/	16C#\	.
16DD/	16D\	.
16EE/JJ	16E\JJ	.
16FF#/LL	16F#\LL	.
16DD/	16D\	.
16EE/	16E\	.
16FF#/JJ	16F#\JJ	.
=38	=38	=38
16GG/LL	16G\LL	.
16FF#/	16F#\	.
16GG/	16G\	.
16AA/JJ	16A\JJ	.
16BB-/LL	16B-\LL	.
16BBn/	16Bn\	.
16C/	16c\	.
16C#/JJ	16c#\JJ	.
*	*clefG2	*clefG2
=39	=39	=39
16D''\LL	16d''/LL	.
(16D\	(16d/	.
16F#\	16f#/	.
16A\JJ	16a/JJ	.
*clefG2	*	*
16d''/LL	16dd''\LL)	.
(16d/)	16dd\	.
16f#/	16ff#\	.
16a/JJ	16aa\JJ	.
=40	=40	=40
16dd''/LL)	16ddd''\LL	.
(16dd/	16ddd\	.
16a/	16aa\	.
16f#/JJ	16ff#\JJ	.
*clefF4	*	*
16d''\LL)	16dd''\LL	.
(16d\	16dd\	.
16A\	16a\	.
16F#\JJ	16f#\JJ	.
=41	=41	=41
16D''\LL)	16d''/LL	.
(16D\	16d/	.
16F#\	16f#/	.
16A\JJ	16a/JJ	.
*clefG2	*	*
16d''/LL	16dd''\LL	.
(16d/)	16dd\	.
16f#/	16ff#\	.
16a/JJ	16aa\JJ	.
=42	=42	=42
16dd''/LL)	16ddd''\LL	.
(16dd/	16ddd\	.
16a/	16aa\	.
16f#/JJ	16ff#\JJ	.
*clefF4	*	*
16d''\LL)	16dd''\LL	.
(16d\	16dd\	.
16A\	16a\	.
16F#\JJ	16f#\JJ	.
=43	=43	=43
16D''\LL)	16d''/LL	.
(16d\	16dd/	.
16A\	16a/	.
16F#\JJ	16f#/JJ	.
*	*clefF4	*clefF4
16D''/LL)	16d''\LL	.
(16D/	16d\	.
16AA/	16A\	.
16FF#/JJ)	16F#\JJ	.
=44	=44	=44
[2DD/	[2D\	.
=45	=45	=45
4..DD;/]	4..D;\]	.
*	*clefG2	*clefG2
16r	[16gg\	f
=46	=46	=46
4G\ 4B\ 4d\	4.gg\]	.
4r	.	.
.	16ff#\LL	.
.	16ee\JJ	.
=47	=47	=47
2r	16dd\LL	.
.	16dd#\	.
.	16ee\	.
.	16b\JJ	.
.	16ddn\LL	.
.	16cc\	.
.	16b\	.
.	16a\JJ	.
=48	=48	=48
2r	4g/	.
.	8r	.
.	16r	.
.	[16B/ [16d/ [16g/	p
=49	=49	=49
8GG''\ 8G''\	8.B/] 8.d/] 8.g/L]	.
8r	.	.
.	[16B/ [16d/ [16b/Jk	.
8GG''\ 8G''\	8.B/] 8.d/] 8.b/L]	.
8r	.	.
.	[16B/ [16d/ [16g/Jk	.
=50	=50	=50
8GG''\ 8G''\	8B/] 8d/] 8g/]	.
8r	8r	.
4r	8r	.
.	16r	.
.	[16B/ [16d/ [16g/	.
=51	=51	=51
8GG''\ 8G''\	8.B/] 8.d/] 8.g/L]	.
8r	.	.
.	[16d/ [16g/ [16b/ [16dd/Jk	.
8GG''\ 8G''\	8.d/] 8.g/] 8.b/] 8.dd/L]	.
8r	.	.
.	[16B/ [16d/ [16g/Jk	.
=52	=52	=52
8GG''\ 8G''\	8B/] 8d/] 8g/]	.
8r	8r	.
4r	8r	.
.	16r	.
.	[16B/ [16d/ [16g/ [16b/	f
=53	=53	=53
8GG''\ 8G''\	8.B/] 8.d/] 8.g/] 8.b/L]	.
8r	.	.
.	[16g/ [16b/ [16ee/ [16gg/Jk	.
8EE''/ 8E''/	8.g\] 8.b\] 8.ee\] 8.gg\L]	.
8r	.	.
.	[16f#\ [16a#\ [16cc#\ [16ff#\Jk	.
=54	=54	=54
8FF#''/ 8F#''/	8f#\] 8a#\] 8cc#\] 8ff#\]	.
8r	8r	.
4r	4r	.
*clefG2	*	*
=55	=55	=55
8g''/	8b''\ 8ee''\	p
8r	8r	.
8g''/	8b''\ 8ee#''\	.
8r	8r	.
=56	=56	=56
8f#/	8a#''\ 8ff#''\	.
8r	8r	.
4r	8r	.
.	16r	.
.	[16B/ [16e/ [16g/ [16b/	f
*clefF4	*	*
=57	=57	=57
8GG''/ 8G''/	8.B/] 8.e/] 8.g/] 8.b/L]	.
8r	.	.
.	[16g/ [16b/ [16ee/ [16gg/Jk	.
8EE''/ 8E''/	8.g\] 8.b\] 8.ee\] 8.gg\L]	.
8r	.	.
.	[16f#\ [16a#\ [16cc#\ [16ff#\Jk	.
=58	=58	=58
8FF#''/ 8F#''/	8f#\] 8a#\] 8cc#\] 8ff#\]	.
8r	8r	.
4r	4r	.
=59	=59	=59
8G''\	8e''/ 8b''/	p
8r	8r	.
8G''\	8e#''/ 8b''/	.
8r	8r	.
=60	=60	=60
8F#''\	8f#''/ 8a#''/	.
8r	8r	.
4r	4r	.
*clefG2	*	*
=61	=61	=61
8g''/	8b''\ 8ee''\	.
8r	8r	.
8g''/	8b''\ 8ee#''\	.
8r	8r	.
=62	=62	=62
8f#''/	8a#''\ 8ff#''\	.
8r	8r	.
4r	4r	.
*clefF4	*	*
=63	=63	=63
8GGG''/ 8GG''/	8B''/ 8e''/ 8b''/	.
8r	8r	.
8GGG''/ 8GG''/	8B''/ 8e#''/ 8b''/	.
8r	8r	.
=64	=64	=64
8FFF#''/ 8FF#''/	16A#/ 16f#/ 16a#/LL	.
.	(16f#/	.
8r	16e#/	.
.	16f#/JJ	.
4r	16e#/LL	.
.	16f#/	.
.	16e#/	.
.	16f#/JJ)	.
=65	=65	=65
2r	(16e#/LL	.
.	16f#/	.
.	16e#/	.
.	16f#/JJ	.
.	16e#/LL	.
.	16f#/	.
.	16g#/	.
.	16f#/JJ)	.
=66	=66	=66
8BB/	8f#/	p
8F#\ 8B\ 8d#\L	(4dd#\	.
8F#\ 8B\ 8d#\	.	.
8F#\ 8B\ 8d#\J	8cc#\)	.
=67	=67	=67
8BB/	8b''\	.
8F#\ 8B\ 8d#\L	(4dd#\	.
8F#\ 8B\ 8d#\	.	.
8F#\ 8B\ 8d#\J	8b\)	.
=68	=68	=68
8FF#/	8a#''/	.
8F#\ 8c#\ 8e\L	4ff#\	.
8F#\ 8c#\ 8e\	.	.
8F#\ 8c#\ 8e\J	[8ff#\	.
=69	=69	=69
8AA#\L	(8ff#\L]	.
8F#\ 8c#\ 8e\J	16gg#\L	.
.	16ff#\JJ	.
8FF#\L	16ee\LL	.
.	16dd#\	.
8F#\ 8c#\ 8e\J	16ee\	.
.	16cc#\JJ)	.
=70	=70	=70
8BB/	8b''\	.
8F#\ 8B\ 8d#\L	(4dd#\	.
8F#\ 8B\ 8d#\	.	.
8F#\ 8B\ 8d#\J	8cc#\)	.
=71	=71	=71
8BB/	8b''\	.
8F#\ 8B\ 8d#\L	(4dd#\	.
8F#\ 8B\ 8d#\	.	.
8F#\ 8B\ 8d#\J	8b\)	.
=72	=72	=72
8FF#/	(8a#\L	.
8F#\ 8c#\ 8e\L	16cc#\L	.
.	16b\JJ	.
8F#\ 8c#\ 8e\	16a#\LL	.
.	16b\	.
8F#\ 8c#\ 8e\J	16cc#\	.
.	16a#\JJ)	.
=73	=73	=73
16BB\LL	8b''\	.
16B\	.	.
16An\	8r	.
16Gn\JJ	.	.
16F#\LL	4r	.
16E\	.	.
16Dn\	.	.
16C#\JJ	.	.
=74	=74	=74
8BB''/	16B/ 16dn/LL	f
.	16f#/	.
(4D/	16B/ 16d/	.
.	16f#/JJ	.
.	16B/ 16d/LL	.
.	16f#/	.
8C#/)	16B/ 16d/	.
.	16f#/JJ	.
=75	=75	=75
8BB''/	16B/ 16d/LL	.
.	16f#/	.
(4D/	16B/ 16d/	.
.	16f#/JJ	.
.	16B/ 16d/LL	.
.	16f#/	.
8BB/)	16B/ 16d/	.
.	16f#/JJ	.
=76	=76	=76
8AA#''/	16c#/ 16e/LL	.
.	16f#/	.
4F#\	16c#/ 16e/	.
.	16f#/JJ	.
.	16A#/ 16c#/LL	.
.	16f#/	.
[8F#\	16A#/ 16c#/	.
.	16f#/JJ	.
=77	=77	=77
8F#\L]	16A#/ 16c#/LL	.
.	16f#/	.
(16G\L	16A#/ 16c#/	.
16F#\JJ	16f#/JJ	.
16E\LL	16A#/ 16c#/LL	.
16D\	16f#/	.
16E\	16A#/ 16c#/	.
16C#\JJ)	16f#/JJ	.
=78	=78	=78
8BB''/	16B/ 16d/LL	.
.	16f#/	.
4D\	16B/ 16d/	.
.	16f#/JJ	.
.	16B/ 16e#/LL	.
.	16g#/	.
8D\	16B/ 16e#/	.
.	16g#/JJ	.
=79	=79	=79
8C#''\L	16en/ 16gn/LL	.
.	16a/	.
(16E\L	16e/ 16g/	.
16D\JJ	16a/JJ	.
16C#\LL	16e/ 16g/LL	.
16D\	16a/	.
16E\	16e/ 16g/	.
16C#\JJ)	16a/JJ	.
=80	=80	=80
8D''\	16d/ 16f#/LL	.
.	16a/	.
4F#\	16d/ 16f#/	.
.	16a/JJ	.
.	16d#/ 16a/LL	.
.	16b#/	.
8F#\	16d#/ 16a/	.
.	16b#/JJ	.
=81	=81	=81
8E#''\L	16g#/ 16bn/LL	.
.	16cc#/	.
(16G#\L	16g#/ 16b/	.
16F#\JJ	16cc#/JJ	.
16E#\LL	16g#/ 16b/LL	.
16F#\	16cc#/	.
16G#\	16g#/ 16b/	.
16E#\JJ)	16cc#/JJ	.
=82	=82	=82
8F#''\	16f#/ 16a/LL	.
.	16cc#/	.
4A\	16f#/ 16a/	.
.	16cc#/JJ	.
.	16f#/ 16a/LL	.
.	16cc#/	.
8A\	16f#/ 16a/	.
.	16cc#/JJ	.
=83	=83	=83
(8A\	16f#\LL	.
.	16dd#\	.
4BB/)	16b\	.
.	16dd#\JJ	.
.	16g\LL	.
.	16ee\	.
8G\	16b\	.
.	16ee\JJ	.
=84	=84	=84
(8G\	16e/LL	.
.	16cc#/	.
4AA/)	16a/	.
.	16cc#/JJ	.
.	16f#/LL	.
.	16ddn/	.
8F#\	16a/	.
.	16dd/JJ	.
=85	=85	=85
(8F#\	16d/LL	.
.	16b/	.
4GG/)	16g/	.
.	16b/JJ	.
.	16e/LL	.
.	16cc#/	.
8E\	16g/	.
.	16cc#/JJ	.
=86	=86	=86
*^	*	*
4.E/	(8E\L	16c#/LL	.
.	.	16a#/	.
.	(8FF#\J)	16f#/	.
.	.	16a#/JJ	.
.	4GG\	16B/LL	.
.	.	16b/	.
8D/)	.	16B/	.
.	.	16b/JJ	.
=87	=87	=87	=87
(8D/L	4EE\	16g\LL	.
.	.	16gg\	.
8C#/	.	16g\	.
.	.	16gg\JJ	.
8BB/	4FF#\	16c#/LL	.
.	.	16cc#/	.
8AA#/J)	.	16f#/	.
.	.	16ff#/JJ	.
*v	*v	*	*
=88	=88	=88
8BBB/ 8BB/	8B/ 8b/	.
8B\ 8d\L	4dd\	p
8B\ 8d\	.	.
8B\ 8d\J	8dd\	.
=89	=89	=89
8AAn/	8cc#\	.
8A\ 8c#\ 8e\L	(16ee\LL	.
.	16dd\JJ	.
8A\ 8c#\ 8e\	16cc#\LL	.
.	16dd\	.
8A\ 8c#\ 8e\J	16ee\	.
.	16cc#\JJ)	.
=90	=90	=90
8D\	8dd\	.
*clefG2	*	*
8d/ 8f#/L	4ff#\	.
8d/ 8f#/	.	.
8d/ 8f#/J	8ff#\	.
*clefF4	*	*
=91	=91	=91
8C#/	8ee#\	.
*clefG2	*	*
8c#/ 8e#/ 8g#/L	(16gg#\LL	.
.	16ff#\JJ	.
8c#/ 8e#/ 8g#/	16ee#\LL	.
.	16ff#\	.
8c#/ 8e#/ 8g#/J	16gg#\	.
.	16ee#\JJ)	.
*clefF4	*	*
=92	=92	=92
8F#\	8ff#\	.
*clefG2	*	*
8f#/ 8a/L	4aa\	.
8f#/ 8a/	.	.
8f#/ 8a/J	8aa\	.
*clefF4	*	*
=93	=93	=93
*	*^	*
8D#\L	[4aa/	16r	<
.	.	(16b\LL	.
8d#\ 8f#\J	.	16a#\	.
.	.	16b\JJ)	.
8E\L	(16aa/LL]	[4b\	.
.	16gg/	.	.
8e\ 8g\J	16ff#/	.	.
.	16gg/JJ)	.	.
=94	=94	=94	=94
8C#\L	[4gg/	(16b\LL]	.
.	.	16an\	.
8c#\ 8e\J	.	16g#\	.
.	.	16a\JJ)	.
8Dn\L	(16gg/LL]	[4a\	.
.	16ff#/	.	.
8dn\ 8f#\J	16ee#/	.	.
.	16ff#/JJ)	.	.
=95	=95	=95	=95
8BB\L	[4ff#/	(16a\LL]	.
.	.	16gn\	.
8B\ 8d\J	.	16f#\	.
.	.	16g\JJ)	.
8C#\L	(16ff#/LL]	4g\	.
.	16een/	.	.
8c#\ 8e\J	16ff#/	.	.
.	[16ee/JJ)	.	.
=96	=96	=96	=96
8AA#\L	16ee/LL]	8f#\	f
.	16ee/	.	.
8A#\ 8c#\J	16ff#/	8r	.
.	16ee/JJ	.	.
8BB\L	16f#/LL	8f#\	.
.	16dd/	.	.
8B\ 8d\J	16ee/	8r	.
.	16dd/JJ	.	.
=97	=97	=97	=97
8EE/L	16g/LL	8e\	.
.	16cc#/	.	.
8E/J	16dd/	8r	.
.	16cc#/JJ	.	.
8FF#/L	16e/LL	8c#\	.
.	16a#/	.	.
8F#/J	16b/	8r	.
.	16a#/JJ	.	.
=98	=98	=98	=98
*^	*	*	*
8r	4BB\	4b/	8r	p
8F#/L	.	.	8d\ 8f#\L	.
8F#/	4r	8r	8d\ 8f#\	.
8F#/J	.	(8dd/	8d\ 8f#\J	.
=99	=99	=99	=99	=99
8F#/L	2FF#\	4.cc#/	8e\ 8f#\L	.
8F#/	.	.	8e\ 8f#\	.
8F#/	.	.	8f#\	.
8F#/J	.	8a#/	8e\ 8f#\J	.
=100	=100	=100	=100	=100
8r	4BB\	4b/)	8r	<
8F#/L	.	.	8d#\ 8f#\L	.
8F#/	4r	8r	8d#\ 8f#\	.
8F#/J	.	(8dd#/	8d#\ 8f#\J	.
=101	=101	=101	=101	=101
8F#/L	2FF#\	4.cc#/	8e\ 8f#\L	>
8F#/	.	.	8e\ 8f#\	.
8F#/	.	.	8e\ 8f#\	.
8F#/J	.	8a#/	8e\ 8f#\J	.
=102	=102	=102	=102	=102
8r	4BB\	4b/)	8r	pp
8F#/L	.	.	8dn\ 8f#\L	.
8F#/	4r	8r	8d\ 8f#\	.
8F#/J	.	(8ddn/	8d\ 8f#\J	.
=103	=103	=103	=103	=103
8F#/L	2FF#\	4.cc#/	8e\ 8f#\L	.
8F#/	.	.	8e\ 8f#\	.
8F#/	.	.	8e\ 8f#\	.
8F#/J	.	8a#/)	8e\ 8f#\J	.
=104	=104	=104	=104	=104
8F#/L	4BB\	8b/L	8d\ 8f#\L	.
8F#/	.	8dd/	8d\ 8f#\	.
8F#/	4FF#\	8cc#/	8e\ 8f#\	.
8F#/J	.	8a#/J	8e\ 8f#\J	.
=105	=105	=105	=105	=105
8F#/L	4BB\	8b/L	8d\ 8f#\L	.
8F#/	.	8dd/	8d\ 8f#\	.
8F#/	4FF#\	8cc#/	8e\ 8f#\	.
8F#/J	.	8a#/J	8e\ 8f#\J	.
=106	=106	=106	=106	=106
8F#/L	4BB\	8b/L	8d\ 8f#\L	.
8F#/	.	8dd/	8d\ 8f#\	.
8F#/	4FF#\	8cc#/	8e\ 8f#\	.
8F#/J	.	8a#/J	8e\ 8f#\J	.
=107	=107	=107	=107	=107
8F#/L	4BB\	8b/L	8d\ 8f#\L	.
8F#/	.	8dd/	8d\ 8f#\	.
8F#/	4FF#\	8cc#/	8e\ 8f#\	.
8F#/J	.	8a#/J	8e\ 8f#\J	.
*v	*v	*	*	*
*	*v	*v	*
=108	=108	=108
4BB/ 4F#/	4d/ 4f#/ 4b/	p
4r	8r	.
*	*clefF4	*clefF4
.	16r	.
.	[16F#\ [16B\ [16d\	.
=109	=109	=109
4BBB/ 4BB/	4F#\] 4B\] 4d\]	.
4r	8r	.
.	16r	.
.	[16D\ [16F#\ [16B\	.
=110	=110	=110
4BBB/ 4BB/	4D\] 4F#\] 4B\]	.
4r	4r	.
=111	=111	=111
8BBB/	8BB/	.
8r	8r	.
8DD/	8D/	.
*	*clefG2	*clefG2
8r	16r	.
.	[16gg\	f
=112	=112	=112
4GGG''/ 4GG''/	4.gg\]	.
4r	.	.
.	16ff#\LL	.
.	16ee\JJ	.
=113	=113	=113
2r	16dd\LL	.
.	16dd#\	.
.	16ee\	.
.	16b\JJ	.
.	16ddn\LL	.
.	16ccn\	.
.	16b\	.
.	16a\JJ	.
=114:|!	=114:|!	=114:|!
*>B	*>B	*>B
2r	4g/	.
.	8r	.
.	16r	.
.	[16B/ [16d/ [16g/	p
=115	=115	=115
8GG''\ 8G''\	8.B/] 8.d/] 8.g/L]	.
8r	.	.
.	[16B/ [16d/ [16b/Jk	.
8GG''\ 8G''\	8.B'/] 8.d'/] 8.b'/L]	.
8r	.	.
.	[16B/ [16d/ [16g/Jk	.
=116	=116	=116
8GG''\ 8G''\	8B/] 8d/] 8g/]	.
8r	8r	.
4r	8r	.
.	16r	.
.	[16B/ [16d/ [16g/	.
=117	=117	=117
8GG''\ 8G''\	8.B/] 8.d/] 8.g/L]	.
8r	.	.
.	[16d/ [16g/ [16b/ [16dd/Jk	.
8GG''\ 8G''\	8.d/] 8.g/] 8.b/] 8.dd/L]	.
8r	.	.
.	[16B/ [16d/ [16g/Jk	.
=118	=118	=118
8GG''\ 8G''\	8B/] 8d/] 8g/]	.
8r	8r	.
4r	8r	.
.	16r	.
.	[16G/ [16g/	f
=119	=119	=119
8FFn''\ 8Fn''\	8.G/] 8.g/L]	.
8r	.	.
.	[16g/ [16gg/Jk	.
8F''\ 8B''\ 8d''\	8.g/] 8.gg/L]	.
8r	.	.
.	[16G/ [16g/Jk	.
=120	=120	=120
8EE-''/ 8E-''/	8.G/] 8.g/L]	.
8r	.	.
.	[16g/ [16gg/Jk	.
8E-''\ 8G''\ 8c''\	8.g/] 8.gg/L]	.
8r	.	.
.	[16G/ [16g/Jk	.
=121	=121	=121
8DD''/ 8D''/	8.G/] 8.g/L]	.
8r	.	.
.	[16g/ [16gg/Jk	.
8D''\ 8Fn''\ 8B''\	8.g/] 8.gg/L]	.
8r	.	.
.	[16G/ [16g/Jk	.
=122	=122	=122
8CC''/ 8EE-''/ 8GG''/ 8C''/	8G/] 8g/]	.
8r	8r	.
4r	8r	.
.	16r	.
.	[16cc\	p
*clefG2	*	*
=123	=123	=123
8c''/ 8e-''/ 8g''/	8.cc\L]	.
8r	.	.
.	[16ee-\Jk	.
8c''/ 8e-''/ 8g''/	8.ee-\L]	.
8r	.	.
.	[16cc\Jk	.
=124	=124	=124
8c''/ 8e-''/ 8g''/	8cc\]	.
8r	8r	.
4r	8r	.
.	16r	.
.	[16cc\	.
=125	=125	=125
8c''/ 8e-''/ 8g''/	8.cc\L]	.
8r	.	.
.	[16ccc\Jk	.
8c''/ 8e-''/ 8g''/	8.ccc\L]	.
8r	.	.
.	[16cc\Jk	.
=126	=126	=126
8c''/ 8e-''/ 8g''/	8cc\]	.
8r	8r	.
4r	8r	.
.	16r	.
.	[16c/ [16cc/	f
*clefF4	*	*
=127	=127	=127
8BB-''\ 8B-''\	8.c\] 8.cc\L]	.
8r	.	.
.	[16cc\ [16ccc\Jk	.
*clefG2	*	*
8B-/ 8en/ 8g/	8.cc\] 8.ccc\L]	.
8r	.	.
.	[16c\ [16cc\Jk	.
*clefF4	*	*
=128	=128	=128
8AA''\ 8A''\	8.c\] 8.cc\L]	.
8r	.	.
.	[16cc\ [16ccc\Jk	.
*clefG2	*	*
8A''/ 8c''/ 8fn''/	8.cc\] 8.ccc\L]	.
8r	.	.
.	[16c\ [16cc\Jk	.
*clefF4	*	*
=129	=129	=129
8GG''\ 8G''\	8.c\] 8.cc\L]	.
8r	.	.
.	[16cc\ [16ccc\Jk	.
8G''\ 8B-''\ 8e''\	8.cc\] 8.ccc\L]	.
8r	.	.
.	[16c\ [16cc\Jk	.
=130	=130	=130
8FFn''/ 8Fn''/	8.c\] 8.cc\L]	.
8r	.	.
.	[16cc\ [16ccc\Jk	.
8F''\ 8A''\ 8c''\	8.cc\] 8.ccc\L]	.
8r	.	.
.	[16fn\ [16ffn\Jk	.
=131	=131	=131
8E-''\ 8e-''\	8.f\] 8.ff\L]	.
8r	.	.
.	[16ffn\ [16fffn\Jk	.
*clefG2	*	*
8e-''/ 8a''/ 8cc''/	8.ff\] 8.fff\L]	.
8r	.	.
.	[16fn\ [16ff\Jk	.
=132	=132	=132
*clefF4	*	*
8D''\ 8d''\	8.f\] 8.ff\L]	.
8r	.	.
.	[16ffn\ [16fffn\Jk	.
*clefG2	*	*
8d''/ 8fn''/ 8b-''/	8.ff\] 8.fff\L]	.
8r	.	.
.	[16fn\ [16ff\Jk	.
*clefF4	*	*
=133	=133	=133
8C''\ 8c''\	8.f\] 8.ff\L]	.
8r	.	.
.	16ffn\ [16fffn\Jk	.
*clefG2	*	*
8c''/ 8e-''/ 8a''/	8.ff\ 8.fff\L]	.
8r	.	.
.	[16fn\ [16ff\Jk	.
*clefF4	*	*
=134	=134	=134
*	*^	*
8BB-''\ 8D''\ 8Fn''\ 8B-''\	4ff/]	16f\LL]	.
.	.	16ccc\	.
8r	.	16ddd\	.
.	.	16aa\JJ	.
4r	16cccn\LL	4r	.
.	16bb-\	.	.
.	16aa\	.	.
.	16gg\JJ	.	.
*	*v	*v	*
=135	=135	=135
2r	16ffn\LL	.
.	16ff#\	.
.	16gg\	.
.	16dd\JJ	.
.	16ffn\LL	.
.	16ee-\	.
.	16dd\	.
.	16cc\JJ	.
=136	=136	=136
16B-\LL	16b-\LL	.
16c#\	16cc#\	.
16d\	16dd\	.
16A\JJ	16a\JJ	.
16cn\LL	16ccn\LL	.
16B-\	16b-\	.
16A\	16a\	.
16G\JJ	16g\JJ	.
=137	=137	=137
16Fn\LL	16fn/LL	.
16F#\	16f#/	.
16G\	16g/	.
16D\JJ	16d/JJ	.
16Fn\LL	16fn/LL	.
16E-\	16e-/	.
16D\	16d/	.
16C\JJ	16c/JJ	.
*	*clefF4	*clefF4
=138	=138	=138
16BB-/LL	16B-\LL	.
16C#/	16c#\	.
16D/	16d\	.
16AA/JJ	16A\JJ	.
16Cn/LL	16cn\LL	.
16BB-/	16B-\	.
16AA/	16A\	.
16GG/JJ	16G\JJ	.
=139	=139	=139
16FFn/LL	16Fn\LL	.
16GG/	16G\	.
16AA-/	16A-\	.
16GG/JJ	16G\JJ	.
16FF/LL	16F\LL	.
16EE-/	16E-\	.
16DD/	16D\	.
16CC/JJ	16C\JJ	.
=140	=140	=140
16BBBn/LL	8BBn/	.
16DD/	.	.
16CC/	8r	.
16EE-/JJ	.	.
*	*clefG2	*clefG2
16DD/LL	[4gg\	f
16FFn/	.	.
16EE-/	.	.
16GG/JJ	.	.
=141	=141	=141
16FFn/LL	4gg\]	.
16AA-/	.	.
16GG/	.	.
16FF/JJ	.	.
16EE-/LL	4ffn\	.
16DD/	.	.
16CC/	.	.
16BBB/JJ	.	.
=142	=142	=142
8CC/	16ee-\LL	.
.	16ddd\	.
8r	16eee-\	.
.	16bb\JJ	.
4r	16ddd\LL	.
.	16ccc\	.
.	16bb-\	.
.	16aa-\JJ	.
=143	=143	=143
2r	16gg\LL	.
.	16aa-\	.
.	16gg\	.
.	16ff#\JJ	.
.	16gg\LL	.
.	16ffn\	.
.	16ee-\	.
.	16dd\JJ	.
=144	=144	=144
16c\LL	16cc\LL	.
16d\	16dd\	.
16e-\	16ee-\	.
16B\JJ	16b\JJ	.
16d\LL	16dd\LL	.
16c\	16cc\	.
16B-\	16b-\	.
16A-\JJ	16a-\JJ	.
=145	=145	=145
16G\LL	16g/LL	.
16A-\	16a-/	.
16G\	16g/	.
16F#\JJ	16f#/JJ	.
16G\LL	16g/LL	.
16Fn\	16fn/	.
16E-\	16e-/	.
16D\JJ	16d/JJ	.
=146	=146	=146
16C/LL	16c/LL	.
16D/	16d/	.
16E-/	16e-/	.
16BB/JJ	16B/JJ	.
16D/LL	16d/LL	.
16C/	16c/	.
16BB-/	16B-/	.
16AA-/JJ	16A-/JJ	.
*	*clefF4	*clefF4
=147	=147	=147
16GG/LL	16G\LL	.
16AAn/	16An\	.
16BB-/	16B-\	.
16AA/JJ	16A\JJ	.
16GG/LL	16G\LL	.
16FFn/	16Fn\	.
16EEn/	16En\	.
16DD/JJ	16D\JJ	.
=148	=148	=148
16CC#/LL	8C#/	.
16EE/	.	.
16DD/	8r	.
16FFn/JJ	.	.
*	*clefG2	*clefG2
16EE/LL	[4aa\	f
16GG/	.	.
16FF/	.	.
16AA/JJ	.	.
=149	=149	=149
16GG/LL	4aa\]	.
16BB-/	.	.
16AA/	.	.
16GG/JJ	.	.
16FFn/LL	4gg\	.
16EE/	.	.
16DD/	.	.
16CC#/JJ	.	.
=150	=150	=150
8DD/	16ffn\LL	.
.	16ee\	.
8r	16ff\	.
.	16cc#\JJ	.
4r	16ee\LL	.
.	16dd\	.
.	16ccn\	.
.	16b-\JJ	.
=151	=151	=151
2r	16a/LL	.
.	16b-/	.
.	16a/	.
.	16g#/JJ	.
.	16a/LL	.
.	16g#/	.
.	16fn/	.
.	16en/JJ	.
=152	=152	=152
16D/LL	16d/LL	.
16E/	16e/	.
16Fn/	16fn/	.
16C#/JJ	16c#/JJ	.
16E/LL	16e/LL	.
16D/	16d/	.
16Cn/	16cn/	.
16BB-/JJ	16B-/JJ	.
*	*clefF4	*clefF4
=153	=153	=153
16AA/LL	16A\LL	.
16BB-/	16B-\	.
16C/	16c\	.
16BB-/JJ	16B-\JJ	.
16AA/LL	16A\LL	.
16BB-/	16B-\	.
16AA/	16A\	.
16GG/JJ	16G\JJ	.
=154	=154	=154
16FF#/LL	16F#\LL	.
16AA/	16A\	.
16GG/	16G\	.
16BB-/JJ	16B-\JJ	.
16AA/LL	16A\LL	.
16C/	16c\	.
16BB-/	16B-\	.
16D/JJ	16d\JJ	.
=155	=155	=155
16C/LL	16c\LL	.
16E-/	16e-\	.
16D/	16d\	.
16C/JJ	16c\JJ	.
16BB-/LL	16B-\LL	.
16AA/	16A\	.
16GG/	16G\	.
16FF#/JJ	16F#\JJ	.
=156	=156	=156
16GG/LL	16G\LL	.
16AA/	16A\	.
16BB-/	16B-\	.
16AA/JJ	16A\JJ	.
16GG/LL	16G\LL	.
16FFn/	16Fn\	.
16EE-/	16E-\	.
16DD/JJ	16D\JJ	.
=157	=157	=157
16CC#/LL	16C#\LL	.
16DD/	16D\	.
16EEn/	16En\	.
16DD/JJ	16D\JJ	.
16CC#/LL	16C#\LL	.
16GG/	16G\	.
16EE/	16E\	.
16CC#/JJ	16C#\JJ	.
=158	=158	=158
16DD/LL	16D\LL	.
16FF#/	16F#\	.
16AA/	16A\	.
16FF#/JJ	16F#\JJ	.
16BB-/LL	16B-\LL	.
16GG/	16G\	.
16EE-/	16E-\	.
16CC#/JJ	16C#\JJ	.
=159	=159	=159
16DD/LL	16D\LL	.
16FF#/	16F#\	.
16AA/	16A\	.
16FF#/JJ	16F#\JJ	.
16BB-/LL	16B-\LL	.
16GG/	16G\	.
16EE-/	16E-\	.
16CC#/JJ	16C#\JJ	.
=160	=160	=160
16DD/LL	16D\LL	.
16FF#/	16F#\	.
16AA/	16A\	.
16FF#/JJ	16F#\JJ	.
16BB-/LL	16B-\LL	.
16GG/	16G\	.
16EE-/	16E-\	.
16CC#/JJ	16C#\JJ	.
=161	=161	=161
16DD/LL	16D\LL	.
16FF#/	16F#\	.
16AA/	16A\	.
16FF#/JJ	16F#\JJ	.
16BB-/LL	16B-\LL	.
16GG/	16G\	.
16EE-/	16E-\	.
16CC#/JJ	16C#\JJ	.
=162	=162	=162
16DD''/LL	16D''\LL	.
16DD/	(16D\	.
16FF#/	16F#\	.
16AA/JJ	16A\JJ	.
*	*clefG2	*clefG2
16D''\LL	16d''/LL)	.
16D\	(16d/	.
16F#\	16f#/	.
16A\JJ	16a/JJ	.
*clefG2	*	*
=163	=163	=163
16d''/LL	16dd''\LL)	.
16d/	(16dd\	.
16f#/	16ff#\	.
16a/JJ	16aa\JJ	.
16dd''/LL	16ddd''\LL)	.
16dd/	(16ddd\	.
16a/	16aa\	.
16f#/JJ	16ff#\JJ	.
*clefF4	*	*
=164	=164	=164
16d''\LL	16dd''/LL)	.
16d\	(16dd/	.
16A\	16a/	.
16F#\JJ	16f#/JJ	.
*	*clefF4	*clefF4
16D''/LL	16d''\LL)	.
16D/	(16d\	.
16AA/	16A\	.
16FF#/JJ	16F#\JJ	.
=165	=165	=165
16DD''/LL	16D''\LL)	.
16DD/	(16D\	.
16FF#/	16F#\	.
16AA/JJ	16A\JJ	.
16D''/LL	16d''\LL)	.
16D/	(16d\	.
16AA/	16A\	.
16FF#/JJ	16F#\JJ	.
=166	=166	=166
16DD''/LL	16D''\LL)	.
16DD/	(16D\	.
16FF#/	16F#\	.
16AA/JJ	16A\JJ	.
*	*clefG2	*clefG2
16C''\LL	16c''/LL)	.
16D\	(16d/	.
16F#\	16f#/	.
16A\JJ	16a/JJ	.
*clefG2	*	*
=167	=167	=167
16c''/LL	16cc''\LL)	.
16d/	(16dd\	.
16f#/	16ff#\	.
16a/JJ	16aa\JJ	.
16cc''\LL	16ccc''\LL)	.
16cc\	(16ccc\	.
16a\	16aa\	.
16f#\JJ	16ff#\JJ	.
*clefF4	*	*
=168	=168	=168
16d''\LL	16dd''/LL)	.
16c\	(16cc/	.
16A\	16a/	.
16F#\JJ	16f#/JJ	.
*	*clefF4	*clefF4
16D''/LL	16d''\LL)	.
16C/	(16c\	.
16AA/	16A\	.
16FF#/JJ	16F#\JJ	.
=169	=169	=169
16DD''/LL	16D''\LL)	.
16DD/	(16D\	.
16FF#/	16F#\	.
16AA/JJ	16A\JJ	.
16C''/LL	16c''\LL)	.
16C/	16c\	.
16AA/	(16A\	.
16FF#/JJ	16F#\JJ	.
=170	=170	=170
4DD/	8.D\L)	f
.	[16D\Jk	.
4F#''\	8.D\L]	p
.	[16D\Jk	.
=171	=171	=171
4A''\	8.D\L]	.
.	[16D\Jk	.
4c''\	8.D\L]	.
.	[16D\Jk	.
*clefG2	*	*
=172	=172	=172
4f#''/	8.D\L]	.
.	[16D\Jk	.
4a''/	8.D\L]	.
.	[16D\Jk	.
=173	=173	=173
4cc''\	8.D\L]	.
.	[16D\Jk	.
4ff#''\	8.D\L]	.
.	[16D\Jk	.
*clefF4	*	*
=174	=174	=174
4DD''/	8.D\L]	f
.	[16D\Jk	.
4F#''\ 4A''\	8.D\L]	p
.	[16D\Jk	.
=175	=175	=175
4A''\ 4c''\	8.D\L]	.
.	[16D\Jk	.
4c''\ 4f#''\	8.D\L]	.
.	[16D\Jk	.
*clefG2	*	*
=176	=176	=176
4f#''/ 4a''/	8.D\L]	.
.	[16D\Jk	.
4a''/ 4cc''/	8.D\L]	.
.	16D\Jk	.
=177	=177	=177
4cc''\ 4ff#''\	8.D\L	.
.	[16D\Jk	.
4ff#''\ 4aa''\	8.D\L]	.
.	[16D\Jk	.
*clefF4	*	*
=178	=178	=178
4DD''/	8.D\L]	f
.	[16D\Jk	.
*clefG2	*	*
4A''/ 4c''/	8.D\L]	p
.	16D\Jk	.
=179	=179	=179
4c''/ 4f#''/	8.D\L	.
.	[16D\Jk	.
4f#''/ 4a''/	8.D\L]	.
.	[16D\Jk	.
=180	=180	=180
4a''\ 4cc''\	8.D\L]	.
.	[16D\Jk	.
4cc''\ 4ff#''\	8.D\L]	.
.	[16D\Jk	.
=181	=181	=181
4ff#''\ 4aa''\	8.D\L]	.
.	[16D\Jk	.
4aa''\ 4ccc''\	8.D\L]	.
.	[16D\Jk	.
=182	=182	=182
4ccc''\ 4eee-''\	4D\]	.
4r	8r	.
.	16r	.
.	[16D\ [16F#\ [16A\ [16c\	.
*clefF4	*	*
=183	=183	=183
4DD''/	4D\] 4F#\] 4A\] 4c\]	.
4r	8r	.
.	16r	.
.	[16D\	.
*clefG2	*	*
=184	=184	=184
4ccc''\ 4eee-''\	4D\]	.
4r	8r	.
.	16r	.
.	[16D\ [16F#\ [16A\ [16c\	.
*clefF4	*	*
=185	=185	=185
4DD''/	4D\] 4F#\] 4A\] 4c\]	.
4r	8r	.
.	16r	.
.	[16D\	.
*clefG2	*	*
=186	=186	=186
4ccc''\ 4eee-''\	4D\]	.
4r	8r	.
.	16r	.
.	[16D\ [16F#\ [16A\ [16c\	.
*clefF4	*	*
=187	=187	=187
4DD''/	4D\] 4F#\] 4A\] 4c\]	.
4r	8r	.
.	16r	.
.	[16D\ [16F#\ [16A\ [16c\	.
=188	=188	=188
4DD''/	4D\] 4F#\] 4A\] 4c\]	.
4r	4r	.
=189	=189	=189
2r	4r	.
.	8r	.
.	16r	.
.	[16D\ [16F#\ [16A\ [16c\	pp
=190	=190	=190
4E-''\	4D\] 4F#\] 4A\] 4c\]	pp
4r	4r	.
=191	=191	=191
2r	4r	.
.	8r	.
.	16r	.
.	[16D\ [16F#\ [16A\ [16c\	pp
=192	=192	=192
4DD''/	4D\] 4F#\] 4A\] 4c\]	pp
4r	4r	.
=193	=193	=193
2r	4r	.
*	*clefG2	*clefG2
.	8r	.
.	16r	.
.	[16gg\	ff
=194	=194	=194
4GGG''/ 4GG''/	4.gg\]	.
4r	.	.
.	16ff#\LL	.
.	16ee\JJ	.
=195	=195	=195
2r	16dd\LL	.
.	16dd#\	.
.	16ee\	.
.	16b\JJ	.
.	16ddn\LL	.
.	16cc\	.
.	16b\	.
.	16a\JJ	.
=196	=196	=196
2r	4g/	.
.	8r	.
.	16r	.
.	[16B/ [16d/ [16g/	p
=197	=197	=197
8GG''\ 8G''\	8.B/] 8.d/] 8.g/L]	.
8r	.	.
.	[16B/ [16d/ [16b/Jk	.
8GG''\ 8G''\	8.B/] 8.d/] 8.b/L]	.
8r	.	.
.	[16B/ [16d/ [16g/Jk	.
=198	=198	=198
8GG''\ 8G''\	8B/] 8d/] 8g/]	.
8r	8r	.
4r	8r	.
.	16r	.
.	[16B/ [16d/ [16g/	.
=199	=199	=199
8GG''\ 8G''\	8.B/] 8.d/] 8.g/L]	.
8r	.	.
.	[16d/ [16g/ [16b/ [16dd/Jk	.
8GG''\ 8G''\	8.d/] 8.g/] 8.b/] 8.dd/L]	.
8r	.	.
.	[16B/ [16d/ [16g/Jk	.
=200	=200	=200
8GG''\ 8G''\	8B/] 8d/] 8g/]	.
8r	8r	.
4r	8r	.
.	16r	.
.	[16B/ [16d/ [16g/ [16b/	f
=201	=201	=201
8GG''\ 8G''\	8.B\] 8.d\] 8.g\] 8.b\L]	.
8r	.	.
.	[16g\ [16b\ [16ee\ [16gg\Jk	.
8EE''/ 8E''/	8.g\] 8.b\] 8.ee\] 8.gg\L]	.
8r	.	.
.	[16f#\ [16a\ [16dd\ [16ff#\Jk	.
=202	=202	=202
8AA''\ 8A''\	8f#\] 8a\] 8dd\] 8ff#\]	.
8r	8r	.
4r	4r	.
=203	=203	=203
8AA''\ 8A''\	8f#''/ 8a''/ 8dd''/	p
8r	8r	.
8AAA''/ 8AA''/	8e''/ 8g''/ 8a''/ 8cc#''/	.
8r	8r	.
=204	=204	=204
8DD''/ 8D''/	8d''/ 8f#''/ 8a''/ 8dd''/	.
8r	8r	.
4r	8r	.
.	16r	.
.	[16e\ [16a\ [16ccn\ [16ee\	f
=205	=205	=205
8C''\ 8c''\	8.e\] 8.a\] 8.cc\] 8.ee\L]	.
8r	.	.
.	[16cc\ [16ee\ [16aa\ [16ccc\Jk	.
8AA''\ 8A''\	8.cc\] 8.ee\] 8.aa\] 8.ccc\L]	.
8r	.	.
.	[16b\ [16dd\ [16gg\ [16bb\Jk	.
=206	=206	=206
8D''\ 8d''\	8b\] 8dd\] 8gg\] 8bb\]	.
8r	8r	.
4r	4r	.
=207	=207	=207
8D''\ 8d''\	8b''\ 8dd''\ 8gg''\	p
8r	8r	.
8DD''/ 8D''/	8a''\ 8dd''\ 8ff#''\	.
8r	8r	.
=208	=208	=208
8GG''\ 8G''\	8b''\ 8dd''\ 8gg''\	.
8r	8r	.
4r	8r	.
.	16r	.
.	[16e\ [16a\ [16cc\ [16ee\	f
=209	=209	=209
8C''\ 8c''\	8.e\] 8.a\] 8.cc\] 8.ee\L]	.
8r	.	.
.	[16cc\ [16ee\ [16aa\ [16ccc\Jk	.
8AA''\ 8A''\	8.cc\] 8.ee\] 8.aa\] 8.ccc\L]	.
8r	.	.
.	[16b\ [16dd#\ [16ff#\ [16bb\Jk	.
=210	=210	=210
8BB''\ 8B''\	8b\] 8dd#\] 8ff#\] 8bb\]	.
8r	8r	.
4r	4r	.
*clefG2	*	*
=211	=211	=211
8cc''\	8ee''\ 8aa''\	p
8r	8r	.
8cc''\	8ee''\ 8aa#''\	.
8r	8r	.
=212	=212	=212
8b''\	8dd#\ 8bb\	.
8r	8r	.
4r	4r	.
*clefF4	*	*
=213	=213	=213
8c''\	8a''\ 8ee''\	.
8r	8r	.
8c\	8a#''\ 8ee''\	.
8r	8r	.
=214	=214	=214
8B''\	8b''\ 8dd#''\	.
8r	8r	.
4r	4r	.
=215	=215	=215
8CC''/ 8C''/	8A''/ 8e''/ 8a''/	.
8r	8r	.
8CC''/ 8C''/	8A#/ 8e/ 8a#/	.
8r	8r	.
=216	=216	=216
8BBB''/ 8BB''/	8B''/ 8d#''/ 8b''/L	.
8r	(16a#/L	<
.	16b/JJ	.
4r	16a#/LL	.
.	16b/	.
.	16a#/	.
.	16b/JJ	.
=217	=217	=217
2r	16a#\LL	.
.	16b\	.
.	16a#\	.
.	16b\JJ	.
.	16a#\LL	.
.	16b\	.
.	16cc#\	.
.	16b\JJ	.
=218	=218	=218
8E\	8b''\)	p
*clefG2	*	*
8B/ 8e/ 8g#/L	(4gg#\	.
8B/ 8e/ 8g#/	.	.
8B/ 8e/ 8g#/J	8ff#\)	.
*clefF4	*	*
=219	=219	=219
8E\	8ee''\	.
*clefG2	*	*
8B/ 8e/ 8g#/L	(4gg#\	.
8B/ 8e/ 8g#/	.	.
8B/ 8e/ 8g#/J	8ee\)	.
*clefF4	*	*
=220	=220	=220
8BB/	8dd#\	.
*clefG2	*	*
8B/ 8f#/ 8a/L	4bb\	.
8B/ 8f#/ 8a/	.	.
8B/ 8f#/ 8a/J	[8bb\	.
*clefF4	*	*
=221	=221	=221
8D#/L	(8bb\L]	.
*clefG2	*	*
8B/ 8f#/ 8a/J	16ccc#\L	.
.	16bb\JJ	.
*clefF4	*	*
8BB/L	16aa\LL	.
.	16gg#\	.
*clefG2	*	*
8B/ 8f#/ 8a/J	16aa\	.
.	16ff#\JJ)	.
*clefF4	*	*
=222	=222	=222
8E\	8ee''\	.
*clefG2	*	*
8B/ 8e/ 8g#/L	(4gg#\	.
8B/ 8e/ 8g#/	.	.
8B/ 8e/ 8g#/J	8ff#\)	.
*clefF4	*	*
=223	=223	=223
8E\	8ee''\	.
*clefG2	*	*
8B/ 8e/ 8g#/L	(4gg#\	.
8B/ 8e/ 8g#/	.	.
8B/ 8e/ 8g#/J	8ee\)	.
*clefF4	*	*
=224	=224	=224
8BB/	8dd#''\L	.
*clefG2	*	*
8B/ 8f#/ 8a/L	(16ff#\L	.
.	16ee\JJ	.
8B/ 8f#/ 8a/	16dd#\LL	.
.	16ee\	.
8B/ 8f#/ 8a/J	16ff#\	.
.	16dd#\JJ)	.
*clefF4	*	*
=225	=225	=225
16E\LL	8ee\	.
16e\	.	.
16dn\	8r	.
16cn\JJ	.	.
16B\LL	4r	.
16A\	.	.
16Gn\	.	.
16F#\JJ	.	.
=226	=226	=226
8E''\	16e/ 16gn/LL	f
.	16b/	.
(4G\	16e/ 16g/	.
.	16b/JJ	.
.	16e/ 16g/LL	.
.	16b/	.
8F#\)	16e/ 16g/	.
.	16b/JJ	.
=227	=227	=227
8E''\	16e/ 16g/LL	.
.	16b/	.
(4G\	16e/ 16g/	.
.	16b/JJ	.
.	16e/ 16g/LL	.
.	16b/	.
8E\)	16e/ 16g/	.
.	16b/JJ	.
=228	=228	=228
8D#''\	16f#/ 16a/LL	.
.	16b/	.
4B\	16f#/ 16a/	.
.	16b/JJ	.
.	16d#/ 16f#/LL	.
.	16b/	.
[8B\	16d#/ 16f#/	.
.	16b/JJ	.
=229	=229	=229
8B\L]	16d#/ 16f#/LL	.
.	16b/	.
(16c\L	16d#/ 16f#/	.
16B\JJ	16b/JJ	.
16A\LL	16d#/ 16f#/LL	.
16G\	16b/	.
16A\	16d#/ 16f#/	.
16F#\JJ)	16b/JJ	.
=230	=230	=230
8E''\	16e/ 16g/LL	<
.	16b/	.
(4G\	16e/ 16g/	.
.	16b/JJ	.
.	16e/ 16g/LL	.
.	16b/	.
8F#\)	16e/ 16g/	.
.	16b/JJ	.
=231	=231	=231
8E''\	16e/ 16g/LL	.
.	16b/	.
4G\	16e/ 16g/	.
.	16b/JJ	.
.	16e/ 16g/ 16b-/LL	.
.	16cc#/	.
8G\	16e/ 16g/ 16b-/	.
.	16cc#/JJ	.
=232	=232	=232
16F#\LL	16a/ 16ccn/LL	.
16A\	16dd/	.
16G\	16a/ 16cc/	.
16B\JJ	16dd/JJ	.
16A\LL	16f#/ 16a/LL	ff
16c\	16dd/	.
16B\	16f#/ 16a/	.
16d\JJ	16dd/JJ	.
=233	=233	=233
16c\LL	16f#/ 16a/LL	.
16B\	16dd/	.
16A\	16f#/ 16a/	.
16G\JJ	16dd/JJ	.
16F#\LL	16f#/ 16a/LL	.
16E\	16dd/	.
16D\	16f#/ 16a/	.
16C\JJ	16dd/JJ	.
=234	=234	=234
8BB\L	8g''\ 8dd''\	.
8G\ 8B\ 8d\J	(4bb\	p
8GG\L	.	.
8G\ 8B\ 8d\J	8aa\)	.
=235	=235	=235
8GG/	8gg''\	.
8G\ 8B\ 8d\L	(4bb\	.
8G\ 8B\ 8d\	.	.
8G\ 8B\ 8d\J	8gg\)	.
=236	=236	=236
8D\	8ff#''\	.
8A\ 8c\ 8d\L	4ddd\	.
8A\ 8c\ 8d\	.	.
8A\ 8c\ 8d\J	[8ddd\	.
=237	=237	=237
8F#\L	(8ddd\L]	.
8A\ 8c\ 8d\J	16eee\L	.
.	16ddd\JJ	.
8D\L	16ccc\LL	.
.	16bb\	.
8A\ 8c\ 8d\J	16ccc\	.
.	16aa\JJ)	.
=238	=238	=238
8G\L	8gg''\	.
8B\ 8d\J	(4bb\	.
8GG\L	.	.
8G\ 8B\ 8d\J	8aa\)	.
=239	=239	=239
8GG/	8gg''\	.
8G\ 8B\ 8d\L	(4bb\	.
8G\ 8B\ 8d\	.	.
8G\ 8B\ 8d\J	8gg\)	.
=240	=240	=240
8D\	8ff#''\	.
8A\ 8c\ 8d\L	(16aa\LL	.
.	16gg\JJ	.
8A\ 8c\ 8d\	16ff#\LL	.
.	16gg\	.
8A\ 8c\ 8d\J	16aa\	.
.	16ff#\JJ)	.
=241	=241	=241
16GG\LL	8gg''\	.
16G\	.	.
16F#\	8r	.
16E\JJ	.	.
16D/LL	4r	.
16C/	.	.
16BB/	.	.
16AA/JJ	.	.
*	*clefF4	*clefF4
=242	=242	=242
8GG''/	16G\ 16B\LL	f
.	16d\	.
(4BB/	16G\ 16B\	.
.	16d\JJ	.
.	16G\ 16B\LL	.
.	16d\	.
8AA/)	16G\ 16B\	.
.	16d\JJ	.
=243	=243	=243
8GG''/	16G\ 16B\LL	.
.	16d\	.
(4BB/	16G\ 16B\	.
.	16d\JJ	.
.	16G\ 16B\LL	.
.	16d\	.
8GG/)	16G\ 16B\	.
.	16d\JJ	.
=244	=244	=244
8FF#''/	16A\ 16c\LL	.
.	16d\	.
4D\	16A\ 16c\	.
.	16d\JJ	.
.	16F#\ 16A\LL	.
.	16d\	.
[8D\	16F#\ 16A\	.
.	16d\JJ	.
=245	=245	=245
(8D\L]	16F#\ 16A\LL	.
.	16d\	.
16E\L	16F#\ 16A\	.
16D\JJ	16d\JJ	.
16C/LL	16F#\ 16A\LL	.
16BB/	16d\	.
16C/	16F#\ 16A\	.
16AA/JJ)	16d\JJ	.
=246	=246	=246
8GG''/	16G\ 16B\LL	.
.	16d\	.
4BB/	16G\ 16B\	.
.	16d\JJ	.
.	16G#\ 16d\LL	.
.	16e#\	.
8BB/	16G#\ 16d\	.
.	16e#\JJ	.
*	*clefG2	*clefG2
=247	=247	=247
8AA#/L	16c#/ 16en/LL	.
.	16f#/	.
(16C#/L	16c#/ 16e/	.
16BB/JJ	16f#/JJ	.
16AA#/LL	16c#/ 16e/LL	.
16BB/	16f#/	.
16C#/	16c#/ 16e/	.
16AA#/JJ)	16f#/JJ	.
=248	=248	=248
8BB''/	16B/ 16d/LL	.
.	16f#/	.
4D/	16B/ 16d/	.
.	16f#/JJ	.
.	16B/ 16fn/LL	.
.	16g#/	.
8D/	16B/ 16f/	.
.	16g#/JJ	.
=249	=249	=249
8C#/L	16e/ 16gn/LL	.
.	16a/	.
(16E/L	16e/ 16g/	.
16D/JJ	16a/JJ	.
16C#/LL	16e/ 16g/LL	.
16D/	16a/	.
16E/	16e/ 16g/	.
16C#/JJ)	16a/JJ	.
=250	=250	=250
8D''\	16d/ 16fn/LL	.
.	16a/	.
4Fn\	16d/ 16f/	.
.	16a/JJ	.
.	16d/ 16f/LL	.
.	16a/	.
8F\	16d/ 16f/	.
.	16a/JJ	.
=251	=251	=251
(8Fn\	16d/LL	.
.	16b/	.
4GG/)	16g/	.
.	16b/JJ	.
.	16e/LL	.
.	16cc/	.
8E\	16g/	.
.	16cc/JJ	.
=252	=252	=252
(8E\	16c#/LL	.
.	16a#/	.
4FF#/)	16f#/	.
.	16a#/JJ	.
.	16d/LL	.
.	16b/	.
8D/	16f#/	.
.	16b/JJ	.
=253	=253	=253
(8D/	16B/LL	.
.	16g#/	.
4EE/)	16e/	.
.	16g#/JJ	.
.	16cn/LL	.
.	16an/	.
8C/	16e/	.
.	16a/JJ	.
=254	=254	=254
*^	*	*
4.C/	(8C\L	16A/LL	.
.	.	16f#/	.
.	8DD\J	16d/	.
.	.	16f#/JJ	.
.	4EE\	16G/LL	.
.	.	16g/	.
8BB/)	.	16g/	.
.	.	16gg/JJ	.
=255	=255	=255	=255
(8BB/L	4CC\	16e/LL	.
.	.	16ee/	.
8AA/	.	16e/	.
.	.	16ee/JJ	.
8GG/	4DD\	16A/LL	.
.	.	16a/	.
8FF#/J)	.	16d/	.
.	.	16dd/JJ	.
*v	*v	*	*
=256	=256	=256
8GGG/ 8GG/	8G/ 8g/	.
8G\ 8B\L	4b/	p
8G\ 8B\	.	.
8G\ 8B\J	8b/	.
=257	=257	=257
8FF#/	8a#/L	.
8F#\ 8A#\ 8c#\L	(16cc#/L	.
.	16b/JJ	.
8F#\ 8A#\ 8c#\	16a#/LL	.
.	16b/	.
8F#\ 8A#\ 8c#\J	16cc#/	.
.	16a#/JJ)	.
=258	=258	=258
8BB/	8b\	.
8B\ 8d\L	4dd\	.
8B\ 8d\	.	.
8B\ 8d\J	8dd\	.
=259	=259	=259
8AAn/	8cc#\L	.
8A\ 8c#\ 8e\L	(16ee\L	.
.	16dd\JJ	.
8A\ 8c#\ 8e\	16cc#\LL	.
.	16dd\	.
8A\ 8c#\ 8e\J	16ee\	.
.	16cc#\JJ	.
=260	=260	=260
8D\	8dd\)	.
8d\ 8fn\L	4ffn\	.
8d\ 8f\	.	.
8d\ 8f\J	8ff\	.
=261	=261	=261
*	*^	*
8BB\L	[4ffn/	16r	.
.	.	(16g\LL	.
8B\ 8d\J	.	16f#\	.
.	.	16g\JJ)	<
8Cn\L	(16ff/LL]	[4g\	.
.	16ee/	.	.
8cn\ 8e\J	16dd#/	.	.
.	16ee/JJ)	.	.
=262	=262	=262	=262
8AA#\L	[4ee/	(16g\LL]	.
.	.	16f#\	.
8A#\ 8c#\J	.	16e#\	.
.	.	16f#\JJ)	.
8BB\L	(16ee/LL]	[4f#\	.
.	16ddn/	.	.
8B\ 8d\J	16cc#/	.	.
.	16dd/JJ)	.	.
=263	=263	=263	=263
8GG#\L	[4dd/	(16f#\LL]	.
.	.	16en\	.
8G#\ 8B\J	.	16d#\	.
.	.	16e\JJ)	.
8AAn\L	16dd/LL]	4e\	.
.	16ccn/	.	.
8An\ 8cn\J	16dd/	.	.
.	[16cc/JJ	.	.
=264	=264	=264	=264
8FF#\L	16cc/LL]	8d\	f
.	16cc/	.	.
8F#\ 8A\J	16dd/	8r	.
.	16cc/JJ	.	.
8GGn\L	16d/LL	4r	.
.	16b/	.	.
8Gn\ 8B\J	16cc/	.	.
.	16b/JJ	.	.
=265	=265	=265	=265
8CC/L	16e/LL	8c\	.
.	16a/	.	.
8C/J	16b/	8r	.
.	16a/JJ	.	.
8DD/L	16c/LL	8A\	.
.	16f#/	.	.
8D/J	16g/	8r	.
.	16f#/JJ	.	.
=266	=266	=266	=266
*^	*	*	*
8r	4GG\	4g/	8r	p
8D/L	.	.	8B\ 8d\L	.
8D/	4r	8r	8B\ 8d\	.
8D/J	.	(8b/	8B\ 8d\J	.
=267	=267	=267	=267	=267
8D/L	2DD\	4.a/	8c\ 8d\L	.
8D/	.	.	8c\ 8d\	.
8D/	.	.	8c\ 8d\	.
8D/J	.	8f#/)	8c\ 8d\J	.
=268	=268	=268	=268	=268
8r	4GG\	4g/	8r	<
8D/L	.	.	8B-\ 8d\L	.
8D/	4r	8r	8B-\ 8d\	.
8D/J	.	(8b-/	8B-\ 8d\J	.
=269	=269	=269	=269	=269
8D/L	2DD\	4.a/	8c\ 8d\L	>
8D/	.	.	8c\ 8d\	.
8D/	.	.	8c\ 8d\	.
8D/J	.	8f#/	8c\ 8d\J	.
=270	=270	=270	=270	=270
8r	4GG\	4g/)	8r	pp
8D/L	.	.	8Bn\ 8d\L	.
8D/	4r	8r	8B\ 8d\	.
8D/J	.	(8bn/	8B\ 8d\J	.
=271	=271	=271	=271	=271
8D/L	2DD\	4.a/	8c\ 8d\L	.
8D/	.	.	8c\ 8d\	.
8D/	.	.	8c\ 8d\	.
8D/J	.	8f#/)	8c\ 8d\J	.
=272	=272	=272	=272	=272
8D/L	4GG\	8g/L	8B\ 8d\L	.
8D/	.	8b/	8B\ 8d\	<
8D/	4DD\	8a/	8c\ 8d\	.
8D/J	.	8f#/J	8c\ 8d\J	.
=273	=273	=273	=273	=273
8D/L	4GG\	8g/L	8B\ 8d\L	.
8D/	.	8b/	8B\ 8d\	.
8D/	4DD\	8a/	8c\ 8d\	.
8D/J	.	8f#/J	8c\ 8d\J	.
=274	=274	=274	=274	=274
8D/L	4GG\	8g/L	8B\ 8d\L	.
8D/	.	8b/	8B\ 8d\	.
8D/	4DD\	8a/	8c\ 8d\	.
8D/J	.	8f#/J	8c\ 8d\J	.
=275	=275	=275	=275	=275
8D/L	4GG\	8g/L	8B\ 8d\L	.
8D/	.	8b/	8B\ 8d\	.
8D/	4DD\	8a/	8c\ 8d\	.
8D/J	.	8f#/J	8c\ 8d\J	.
*v	*v	*	*	*
*	*v	*v	*
=276	=276	=276
4GG/ 4D/	4B/ 4d/ 4g/	p
4r	8r	.
.	16r	.
*	*clefF4	*clefF4
.	[16G\ [16B\ [16d\	.
=277	=277	=277
4GGG/ 4GG/	4G\] 4B\] 4d\]	.
4r	8r	.
.	16r	.
.	[16D\ [16G\ [16B\	.
=278	=278	=278
4GGG/ 4GG/	4D\] 4G\] 4B\]	.
4r	4r	.
=279	=279	=279
8BBB/	8BB/	.
8r	8r	.
8DD/	8D\	.
*	*clefG2	*clefG2
8r	16r	.
.	[16gg\	ff
=280	=280	=280
4GGG''/ 4GG''/	4.gg\]	ff
4r	.	.
.	16ff#\LL	.
.	16ee\JJ	.
=281	=281	=281
2r	16dd\LL	.
.	16dd#\	.
.	16ee\	.
.	16b\JJ	.
.	16ddn\LL	.
.	16cc\	.
.	16b\	.
.	16a\JJ	.
=282	=282	=282
16G\LL	16g/LL	.
16A#\	16a#/	.
16B\	16b/	.
16F#\JJ	16f#/JJ	.
16An\LL	16an/LL	.
16G\	16g/	.
16F#\	16f#/	.
16E\JJ	16e/JJ	.
=283	=283	=283
16D/LL	16d/LL	.
16D#/	16d#/	.
16E/	16e/	.
16BB/JJ	16B/JJ	.
16Dn/LL	16dn/LL	.
16C/	16c/	.
16BB/	16B/	.
16AA/JJ	16A/JJ	.
*	*clefF4	*clefF4
=284	=284	=284
16GG/LL	16G\LL	.
16AA#/	16A#\	.
16BB/	16B\	.
16FF#/JJ	16F#\JJ	.
16AAn/LL	16An\LL	.
16GG/	16G\	.
16FF#/	16F#\	.
16EE/JJ	16E\JJ	.
=285	=285	=285
16DD/LL	16D\LL	.
16DD#/	16D#\	.
16EE/	16E\	.
16BBB/JJ	16BB\JJ	.
16DDn/LL	16Dn/LL	.
16CC/	16C/	.
16BBB/	16BB/	.
16AAA/JJ	16AA/JJ	.
=286	=286	=286
16GGG/LL	16GG/LL	.
16FFF#/	16FF#/	.
16GGG/	16GG/	.
16AAA/JJ	16AA/JJ	.
16BBB-/LL	16BB-/LL	.
16BBBn/	16BBn/	.
16CC/	16C/	.
16CC#/JJ	16C#/JJ	.
=287	=287	=287
16DD/LL	16D\LL	.
16CC#/	16C#\	.
16DD/	16D\	.
16EE/JJ	16E\JJ	.
16FF#/LL	16F#\LL	.
16DD/	16D\	.
16EE/	16E\	.
16FF#/JJ	16F#\JJ	.
=288	=288	=288
16GG/LL	16G\LL	.
16FF#/	16F#\	.
16GG/	16G\	.
16AA/JJ	16A\JJ	.
16BB-/LL	16B-\LL	.
16BBn/	16Bn\	.
16C/	16c\	.
16C#/JJ	16c#\JJ	.
*	*clefG2	*clefG2
=289	=289	=289
16D''\LL	16d''/LL	.
16D\	(16d/	.
16F#\	16f#/	.
16A\JJ	16a/JJ	.
*clefG2	*	*
16d''/LL	16dd''\LL)	.
16d/	(16dd\	.
16f#/	16ff#\	.
16a/JJ	16aa\JJ	.
=290	=290	=290
16dd''\LL	16ddd''\LL)	.
16dd\	(16ddd\	.
16a\	16aa\	.
16f#\JJ	16ff#\JJ	.
*clefF4	*	*
16d''\LL	16dd''\LL)	.
16d\	(16dd\	.
16A\	16a\	.
16F#\JJ	16f#\JJ	.
=291	=291	=291
16D''\LL	16d''/LL)	.
16D\	(16d/	.
16F#\	16f#/	.
16A\JJ	16a/JJ	.
*clefG2	*	*
16d''/LL	16dd''\LL)	.
16d/	(16dd\	.
16f#/	16ff#\	.
16a/JJ	16aa\JJ	.
=292	=292	=292
16dd''/LL	16ddd''\LL)	.
(16dd/	(16ddd\	.
16a/	16aa\	.
16f#/JJ	16ff#\JJ	.
*clefF4	*	*
16d''\LL)	16dd''\LL)	.
(16d\	16dd\	.
16A\	16a\	.
16F#\JJ	16f#\JJ	.
=293	=293	=293
16D''\LL)	16d''/LL	.
(16d\	16dd/	.
16A\	16a/	.
16F#\JJ	16f#/JJ	.
*	*clefF4	*clefF4
16D''/LL)	16d''\LL	.
(16D/	16d\	.
16AA/	16A\	.
16FF#/JJ)	16F#\JJ	.
=294	=294	=294
[2DD/	[2D\	.
=295	=295	=295
4..DD;/]	4..D;\]	.
*	*clefG2	*clefG2
16r	[16d/ [16f#/ [16a/	p
=296	=296	=296
2D\ 2A\ 2c\	2d/] 2f#/] 2a/]	.
*clefG2	*	*
=297	=297	=297
8a''/	8aa''\	pp
8r	8r	.
8cc''\	8ccc''\	.
8r	8r	.
=298	=298	=298
8d''/	8dd''\	.
8r	8r	.
4r	4r	.
=299	=299	=299
2r	4r	.
.	8r	.
.	16r	.
.	[16d/ [16f#/ [16a/	pp
*clefF4	*	*
=300	=300	=300
2D\ 2A\ 2c\	4.d/] 4.f#/] 4.a/]	.
.	(24cc#\LL	.
.	24dd\	.
.	24ee\JJ)	.
=301	=301	=301
2r	8dd\	.
.	8r	.
.	8r	.
.	16r	.
.	[16B/ [16d/ [16g/ [16b/	.
=302	=302	=302
2GG\ 2BB\ 2D\ 2G\	4.B/] 4.d/] 4.g/] 4.b/]	.
.	(24cc#\LL	.
.	24dd\	.
.	24ee\JJ)	.
=303	=303	=303
2r	8dd\	.
.	8r	.
.	8r	.
.	16r	.
.	[16d/ [16f#/ [16ccn/	.
=304	=304	=304
8D''\ 8A''\ 8c''\	4d/_ 4f#/_ 4cc/_	.
8r	.	.
4r	8.d\] 8.f#\] 8.cc\L]	.
.	[16f#\ [16cc\ [16ff#\Jk	.
=305	=305	=305
8DD''/ 8D''/	4f#\_ 4cc\_ 4ff#\_	.
8r	.	.
4r	8.f#\] 8.cc\] 8.ff#\L]	.
.	[16g\ [16b\ [16gg\Jk	.
=306	=306	=306
8GG''\ 8G''\	8g''\] 8b''\] 8gg''\]	.
8r	8r	.
8GG''\ 8G''\	8B''/ 8d''/ 8g''/	.
8r	8r	.
=307	=307	=307
2r	4r	.
.	8r	.
.	16r	.
.	[16d/ [16f#/ [16a/	.
=308	=308	=308
2D\ 2A\ 2c\	4.d/] 4.f#/] 4.a/]	.
.	(24dd\LL	.
.	24ff#\	.
.	24aa\JJ)	.
=309	=309	=309
2r	8ddd\	.
.	8r	.
.	8r	.
.	16r	.
.	[16B/ [16d/ [16g/ [16b/	.
=310	=310	=310
2GG\ 2BB\ 2D\ 2G\	4.B/] 4.d/] 4.g/] 4.b/]	.
.	(24dd\LL	.
.	24gg\	.
.	24bb\JJ)	.
=311	=311	=311
2r	8ddd\	.
.	8r	.
.	8r	.
.	16r	.
.	[16d/ [16f#/ [16cc/	.
=312	=312	=312
8D''\ 8A''\ 8c''\	4d/_ 4f#/_ 4cc/_	.
8r	.	.
4r	8.d/] 8.f#/] 8.cc/L]	.
.	[16f#/ 16cc/ [16ff#/Jk	.
=313	=313	=313
8DD''/ 8D''/	4f#\_ [4cc\ 4ff#\_	.
8r	.	.
4r	8.f#\] 8.cc\] 8.ff#\L]	.
.	[16g\ [16b\ [16gg\Jk	.
=314	=314	=314
8GG''\ 8G''\	8g''\] 8b''\] 8gg''\]	.
8r	8r	.
8GG''\ 8G''\	8B''/ 8d''/ 8g''/	.
8r	8r	.
=315	=315	=315
2r	4r	.
.	8r	.
.	16r	.
.	[16d/ [16f#/ [16cc/	pp
=316	=316	=316
8D''\ 8A''\ 8c''\	4d/_ 4f#/_ 4cc/_	.
8r	.	.
4r	8.d\] 8.f#\] 8.cc\L]	.
.	[16a\ [16ff#\ [16aa\Jk	.
=317	=317	=317
8DD''/ 8D''/	4a\_ 4ff#\_ 4aa\_	.
8r	.	.
4r	8.a\] 8.ff#\] 8.aa\L]	.
.	[16b\ [16gg\ [16bb\Jk	.
=318	=318	=318
8GG''\ 8G''\	8b''\] 8gg''\] 8bb''\]	.
8r	8r	.
8GG''\ 8G''\	8B/ 8d/ 8g/ 8b/	.
8r	8r	.
=319	=319	=319
2r	4r	.
.	8r	.
.	16r	.
.	[16d/ [16a/ [16cc/ [16dd/	ff
=320	=320	=320
8D''\ 8A''\ 8c''\	4d/_ 4a/_ 4cc/_ 4dd/_	.
8r	.	.
4r	8.d\] 8.a\] 8.cc\] 8.dd\L]	.
.	[16dd\ [16ff#\ [16aa\ [16ddd\Jk	.
=321	=321	=321
8DD''/ 8D''/	4dd\_ 4ff#\_ 4aa\_ 4ddd\_	.
8r	.	.
4r	8.dd\] 8.ff#\] 8.aa\] 8.ddd\L]	.
.	[16b\ [16dd\ [16gg\ [16bb\Jk	.
=322	=322	=322
8GG''\ 8G''\	8b''\] 8dd''\] 8gg''\] 8bb''\]	.
8r	8r	.
8GG''\ 8G''\	8B''/	.
8r	8r	.
=323	=323	=323
2r	2r	.
=324	=324	=324
8GGG''/ 8GG''/	8g''\ 8b''\ 8dd''\ 8gg''\	p
8r	8r	.
*	*clefF4	*clefF4
8GGG''/ 8GG''/	8BB''\ 8D''\ 8G''\	.
8r	8r	.
=325	=325	=325
4r	4r	.
8r	8r	.
16r;	16r;	.
==	==	==
*-	*-	*-
!!!ENC: Craig Stuart Sapp
!!!END: 2004/11/21/
